X:1
T:James Gibb editions
T:In omnem terram - Draconio
%%score [ 1 2 3 4 ]
L:1/8
Q:1/4=84
M:4/4
K:Bb
V:1 treble nm="Alto" snm="A"
V:2 treble nm="Tenor I" snm="T I"
V:3 treble-8 nm="Tenor II" snm="T II"
V:4 bass nm="Bass" snm="B"
V:1
"^Giovanni Andrea Draconio\n(1550?-99)""^Romans 10:18" G2 GG G2"^In omnem terram" G2 | %1
w: In o- mnem ter- ram|
 B2 BB c2 Bc |[M:4/4] (c B2 A) B4 | B3 B B2 B2 | B2 B2 B4 | B2 B2 G4 | B4 A4 | G8- | !fermata!G8 |] %9
w: ex- i- vit so- nus e-|o\- * * rum|et in fi- nes|or- bis ter-|rae ver- ba|e- o-|rum.||
V:2
 E2 EE E2 E2 | G2 GG EF G2 |[M:4/4] F4 F4 | F3 F F2 F2 | G2 F2 E4 | D2 F2 E4 | D8 | (B,3 C/D/ E4) | %8
w: In o- mnem ter- ram|ex- i- vit so- nus e-|o- rum|et in fi- nes|or- bis ter-|rae ver- ba|e-|o\- * * *|
 !fermata!D8 |] %9
w: rum.|
V:3
 B2 BB B2 B2 | e2 ee c2 de |[M:4/4][K:treble-8] d2 (c2 d4) | d3 d d2 d2 | d2 d2 g4 | f2 d2 c2 (B2 | %6
w: In o- mnem ter- ram|ex- i- vit so- nus e-|o- rum *|et in- fi- nes|or- bis ter-|rae ver- ba e\-|
 BA G4 ^F2) | (G3 A/B/ c4) | !fermata!=B8 |] %9
w: |o\- * * *|rum.|
V:4
 E,2 E,E, E,2 E,2 | E,2 E,E, _A,2 G,E, |[M:4/4] F,4 B,,4 | B,3 B, B,2 B,2 | G,2 D,2 E,4 | %5
w: In o- mnem ter- ram|ex- i- vit so- nus e-|o- rum|et in fi- nes|or- bis ter-|
 B,,2 B,,2 (C,D,E,F, | G,4) D,4 | (E,3 D, C,4) | !fermata!G,8 |] %9
w: rae ver- ba * * *|* e-|o\- * *|rum.|

